X: 25311
T: Manchester Angel, The
R: slide
M: 12/8
K: Aminor
G2G G2A B2c dcB|AGF E2E E4ze|
e2e g2f e2e d2e|c2c cBA B4ze|
e2e g2f e2e d2e|c2c cBA B4zB|
A2B c2d e2d BAG|AGF E2E E6:|

